X:1
T: Kinlough Trails
C:Gordy Euler
R:Jig
Q: 180
K:D
M:6/8
L:1/16
|:D2A,2D2 C2D2E2|D2F2G2 F2E2D2|E2F2G2 F2G2A2|G2A2B2 c2E2F2|
D2A,2D2 C2D2E2|D2F2G2 F2E2D2|G2A2B2 A2F2F2|G2E2C2 D6:|
|:D2F2A2 E2G2B2|G2A2c2 d2c2B2|A2d2f2 a2f2a2|e2g2A2 G2F2E2|
D2F2A2 E2G2B2|G2A2c2 d2c2B2|A2d2f2 a2f2a2|g2e2c2 d6:|
